X:34
T:TEGRMBL3- The Irish Lady or Anniseed water Robin
S:Dancing Master from 1651
Q:1/4=120
L:1/4
M:3/4
K:Am
def|efg|c2c|c2d|d3/2 f/e/g/|cde/d/|cAA|[1 A3:|[2 A2||\
G|FFF|F3/2 E/D|fff|f3/2 e/d|e2f|g33/2 f/e/f/|d2A|[1 d2:|[d3|]

